X: 79
T:Uist Reel
M:4/4
L:1/8
C:traditional
S:Lunasa: Redwood
R:REEL
Z:Gregor
K:G
dAAd F2dA|c2Bc ECGE|dAAd F2dA|BcEG ADDA|
dAAd F2dA|c2Bc ECGE|FDAD AABc|ECEG ADDA||
(3DDD AD (3DDD dA|c2Bc ECGE|(3DDD AD (3DDD dA|BcEG ADDA|
(3DDD AD (3DDD dA|c2Bc ECGE|(3DDD AD (3DDD dA|BcEG ADDA||
